X: 1
T: Garrevaques
C: Guilhem Cavallier
M: 6/8
L: 1/8
R: jig
K: Gmaj
|: D2B AGE | DGG FGA | B2B ABc | d2g fdc |
   BdB cAF | DGG FGA | B2B cAF |1 AGF G2E :|2 AGF GBd |
   g2e fdc | d2B cAF | DGG FGA | B2B ABc |
   d2g fdc | BdB cAF | DGG FGA | BGF GBd |
   g2e fdc | d2B cAF | DGG FGA | B3  AGE |
   D2B AGE | DGG FGA | B2B cAF | AGF G2E |
